src/icons/solid/view-boards.svg

<svg width="20" height="20" viewBox="0 0 20 20" fill="none" xmlns="http://www.w3.org/2000/svg">

<path d="M2 4C2 3.44772 2.44772 3 3 3H5C5.55228 3 6 3.44772 6 4V16C6 16.5523 5.55228 17 5 17H3C2.44772 17 2 16.5523 2 16V4Z" fill="#4A5568"/>
<path d="M8 4C8 3.44772 8.44772 3 9 3H11C11.5523 3 12 3.44772 12 4V16C12 16.5523 11.5523 17 11 17H9C8.44772 17 8 16.5523 8 16V4Z" fill="#4A5568"/>
<path d="M15 3C14.4477 3 14 3.44772 14 4V16C14 16.5523 14.4477 17 15 17H17C17.5523 17 18 16.5523 18 16V4C18 3.44772 17.5523 3 17 3H15Z" fill="#4A5568"/>
</svg>

<svg xmlns="http://www.w3.org/2000/svg" viewBox="0 0 20 20" fill="currentColor">
  <path d="M2 4a1 1 0 011-1h2a1 1 0 011 1v12a1 1 0 01-1 1H3a1 1 0 01-1-1V4zM8 4a1 1 0 011-1h2a1 1 0 011 1v12a1 1 0 01-1 1H9a1 1 0 01-1-1V4zM15 3a1 1 0 00-1 1v12a1 1 0 001 1h2a1 1 0 001-1V4a1 1 0 00-1-1h-2z"/>
</svg>
